X:1
T:RVW2/1/17 I Once Loved A Dark Girl [False Lover]-0
T:RVW2/1/17 I Once Loved A Dark Girl [False Lover]-0
T:Sung by Mrs. Tiffen (Jnr.) at Holton St. Mary, Sept. 3rd 1907
T:Transcribed by Simon Furey and Lewis Jones
C:Transcribed by Simon Furey and Lewis Jones
L:1/8
Q:1/8=126
M:3/8
K:G
V:1 treble 
V:1
"^(editorial suggestion)" D | DGG | GDD | GBd | d2 B | AAA | cBA | GFG |"^(a)" A2 d | B>cd | EFG | %11
 A>BA | GFD | E>FG | A>FD | DG || D | DGG | GDD | GBd | d2 B | AAA | cBA | GFG | %24
"^(a) var.--N.B. a little doubtful [RVW]" D2 d | B>cd | EFG | A>BA | GFD | E>FG | A>FD | DG |] %32

